X:0121
T:Lather awa' wi' your Oak Stick.
T:Leather awa' wi' your Oak Stick.
N:second title is as in the index
M:6/8
L:1/8
Q:3/8=120
I: :: ::
Z:Jack Campin * www.campin.me.uk * 2009
K:G
BGG G2B|ded d2c|BGG GBd|e3 g3  |
GBd gfe|edc cBA|BGE EDE|c3 edc:|
BGE EDE|GED D2c|BGE EDE|c3 edc |
BGE EDE|GED D2c|BGA BGE|G3 G3 :|

